X:188
T: Muede kehrt ein Wanderer zurueck
N: D1019
O: Europa, Mitteleuropa, Deutschland, ???, Bielitz
N: DVA-Signatur A 193 113
R: Liebes - Lied
M: 4/4
L: 1/16
K: G
D3D | B6A2G3FG3A | D4z8
F3G | A6G2F2A2e2d2 | B4z8
D3D | B6B2d3dc3B | A4z8
B3A | G6D2D2c2B2A2 | G4z8

@@@ Tune index: 2710
